; generated by PrusaSlicer 2.2.0+linux-x64 on 2020-11-11 at 02:18:09 UTC

; 0.5mm extrusion width
; 0.3mm layer height
; 80mm/s print speed
; 2.85mm filament diameter
; 
; 12.00mm^3/s
; 1.88mm/s extruder speed

; external perimeters extrusion width = 0.50mm
; perimeters extrusion width = 0.50mm
; infill extrusion width = 0.50mm
; solid infill extrusion width = 0.50mm
; top infill extrusion width = 0.50mm
; first layer extrusion width = 0.85mm

M201 X9000 Y9000 Z900 E10000 ; sets maximum accelerations, mm/sec^2
M203 X900 Y900 Z70 E120 ; sets maximum feedrates, mm/sec
M204 P1600 R1600 T1600 ; sets acceleration (P, T) and retract acceleration (R), mm/sec^2
M205 X12.00 Y12.00 Z1.00 E4.00 ; sets the jerk limits, mm/sec
M205 S0 T0 ; sets the minimum extruding and travel feed rate, mm/sec
M107
M104 S240 ; set temperature
;G28 ; home all axes
;G1 Z5 F5000 ; lift nozzle


;This G-Code has been generated specifically for the LulzBot TAZ 5 with standard extruder
M75			 ; start GLCD timer
M140 S60    ; start bed heating up
G90                      ; absolute positioning
M107                     ; disable fans
M82                      ; set extruder to absolute mode
G28 X0 Y0                ; home X and Y
G28 Z0                   ; home Z
;G1 Z15.0 Fspeed_travel ; move extruder up - NOT supported by prusaslicer
G1 Z15.0
M117 Heating...                     ; progress indicator message on LCDM109 R240  ; wait for extruder to reach printing temp
M190 R60    ; wait for bed to reach printing temp
G92 E0                   ; set extruder position to 0
G1 F200 E0               ; prime the nozzle with filament
G92 E0                   ; re-set extruder position to 0
;G1 Fspeed_travel       ; set travel speed - NOT supported by prusaslicer
M203 X192 Y208 Z3        ; set limits on travel speed
M117 TAZ 5 Printing...   ; progress indicator message on LCD

M109 S240 ; set temperature and wait for it to be reached
G21 ; set units to millimeters
G90 ; use absolute coordinates
M82 ; use absolute distances for extrusion
G92 E0
; Filament gcode
G1 Z0.425 F9600.000
G1 E-0.65000 F2400.00000
G92 E0
G1 X102.977 Y114.541 F9600.000
G1 E0.65000 F2400.00000
G1 F1800.000
G1 X103.939 Y113.905 E0.70827
G1 X105.012 Y113.484 E0.76654
G1 X106.149 Y113.294 E0.82482
G1 X136.494 Y113.284 E2.35883
G1 X179.349 Y113.331 E4.52520
G1 X180.135 Y113.450 E4.56536
G1 X180.895 Y113.680 E4.60551
G1 X181.615 Y114.016 E4.64567
G1 X182.283 Y114.456 E4.68612
G1 X182.880 Y114.989 E4.72656
G1 X183.391 Y115.597 E4.76672
G1 X183.810 Y116.272 E4.80688
G1 X184.127 Y117.000 E4.84703
G1 X184.357 Y117.881 E4.89304
G1 X184.439 Y118.781 E4.93875
G1 X184.439 Y149.621 E6.49772
G1 X184.158 Y152.491 E6.64349
G1 X183.849 Y154.055 E6.72410
G1 X183.406 Y155.680 E6.80926
G1 X182.884 Y157.169 E6.88898
G1 X182.257 Y158.628 E6.96930
G1 X180.905 Y161.095 E7.11148
G1 X166.723 Y181.948 E8.38633
G1 X165.669 Y183.237 E8.47052
G1 X164.572 Y184.248 E8.54590
G1 X163.312 Y185.126 E8.62355
G1 X162.006 Y185.736 E8.69641
G1 X160.892 Y186.036 E8.75473
G1 X159.621 Y186.167 E8.81930
G1 X145.516 Y186.172 E9.53233
G1 X144.611 Y186.115 E9.57819
G1 X130.200 Y184.279 E10.31259
G1 X128.827 Y183.829 E10.38562
G1 X122.984 Y181.104 E10.71152
G1 X121.911 Y180.457 E10.77490
G1 X120.867 Y179.546 E10.84493
G1 X106.229 Y163.454 E11.94457
G1 X104.918 Y161.705 E12.05511
G1 X103.973 Y160.187 E12.14549
G1 X103.006 Y158.293 E12.25300
G1 X102.210 Y156.294 E12.36172
G1 X101.711 Y154.655 E12.44837
G1 X101.343 Y153.017 E12.53321
G1 X101.099 Y151.396 E12.61607
G1 X100.966 Y149.533 E12.71049
G1 X100.969 Y118.605 E14.27395
G1 X101.070 Y117.736 E14.31820
G1 X101.308 Y116.887 E14.36275
G1 X101.679 Y116.088 E14.40729
G1 X102.169 Y115.362 E14.45154
G1 X102.925 Y114.594 E14.50602
G1 X103.463 Y115.126 F9600.000
G1 F1800.000
G1 X104.308 Y114.569 E14.55719
G1 X105.241 Y114.208 E14.60777
G1 X106.234 Y114.049 E14.65862
G1 X136.494 Y114.043 E16.18829
G1 X179.243 Y114.084 E18.34933
G1 X180.587 Y114.374 E18.41883
G1 X181.218 Y114.664 E18.45395
G1 X181.796 Y115.040 E18.48879
G1 X182.761 Y116.020 E18.55829
G1 X183.405 Y117.235 E18.62779
G1 X183.607 Y117.999 E18.66779
G1 X183.681 Y118.793 E18.70807
G1 X183.680 Y149.608 E20.26581
G1 X183.410 Y152.361 E20.40564
G1 X183.112 Y153.875 E20.48369
G1 X182.686 Y155.440 E20.56568
G1 X182.176 Y156.897 E20.64371
G1 X181.570 Y158.306 E20.72121
G1 X180.264 Y160.688 E20.85855
G1 X166.112 Y181.496 E22.13065
G1 X165.121 Y182.713 E22.20999
G1 X164.116 Y183.641 E22.27914
G1 X162.953 Y184.457 E22.35096
G1 X161.769 Y185.015 E22.41709
G1 X160.760 Y185.289 E22.46997
G1 X159.599 Y185.408 E22.52897
G1 X144.699 Y185.361 E23.28218
G1 X130.376 Y183.541 E24.01205
G1 X129.130 Y183.133 E24.07836
G1 X123.322 Y180.425 E24.40230
G1 X122.250 Y179.764 E24.46597
G1 X121.411 Y179.017 E24.52274
G1 X106.810 Y162.966 E25.61962
G1 X105.542 Y161.273 E25.72654
G1 X104.636 Y159.818 E25.81321
G1 X103.698 Y157.981 E25.91749
G1 X102.933 Y156.062 E26.02193
G1 X102.445 Y154.462 E26.10647
G1 X102.090 Y152.885 E26.18819
G1 X101.854 Y151.319 E26.26826
G1 X101.725 Y149.545 E26.35815
G1 X101.727 Y118.652 E27.91985
G1 X101.812 Y117.892 E27.95849
G1 X102.018 Y117.156 E27.99714
G1 X102.339 Y116.462 E28.03578
G1 X102.764 Y115.833 E28.07416
G1 X103.410 Y115.179 E28.12062
G1 E27.47062 F2400.00000
G92 E0
G1 X149.539 Y124.011 F9600.000
G1 E0.65000 F2400.00000
G1 F1800.000
G1 X149.539 Y119.457 E0.88018
G1 X178.297 Y119.457 E2.33393
G1 X178.297 Y149.495 E3.85236
G1 X178.206 Y150.692 E3.91307
G1 X178.033 Y151.864 E3.97296
G1 X177.866 Y152.664 E4.01426
G1 X177.549 Y153.827 E4.07517
G1 X177.152 Y154.962 E4.13596
G1 X176.674 Y156.065 E4.19672
G1 X176.120 Y157.132 E4.25751
G1 X175.491 Y158.156 E4.31829
G1 X174.790 Y159.134 E4.37907
G1 X174.022 Y160.059 E4.43986
G1 X173.190 Y160.927 E4.50065
G1 X172.311 Y161.722 E4.56055
G1 X171.674 Y162.233 E4.60184
G1 X170.692 Y162.930 E4.66274
G1 X169.663 Y163.554 E4.72353
G1 X168.594 Y164.103 E4.78432
G1 X167.488 Y164.575 E4.84511
G1 X166.367 Y164.961 E4.90501
G1 X165.581 Y165.181 E4.94629
G1 X164.403 Y165.436 E5.00720
G1 X163.213 Y165.606 E5.06799
G1 X162.013 Y165.691 E5.12878
G1 X160.831 Y165.691 E5.18856
G1 X159.631 Y165.606 E5.24935
G1 X158.441 Y165.436 E5.31013
G1 X157.266 Y165.182 E5.37092
G1 X156.109 Y164.844 E5.43182
G1 X155.340 Y164.568 E5.47311
G1 X154.251 Y164.103 E5.53301
G1 X153.181 Y163.554 E5.59380
G1 X152.153 Y162.930 E5.65459
G1 X151.170 Y162.233 E5.71550
G1 X150.546 Y161.733 E5.75590
G1 X149.945 Y161.203 E5.79643
G1 X149.370 Y160.644 E5.83696
G1 X148.822 Y160.059 E5.87748
G1 X148.303 Y159.448 E5.91802
G1 X147.813 Y158.814 E5.95854
G1 X147.353 Y158.156 E5.99907
G1 X146.926 Y157.478 E6.03960
G1 X146.531 Y156.781 E6.08013
G1 X146.169 Y156.065 E6.12066
G1 X145.843 Y155.333 E6.16116
G1 X145.551 Y154.586 E6.20170
G1 X145.295 Y153.827 E6.24222
G1 X145.076 Y153.058 E6.28262
G1 X144.811 Y151.862 E6.34456
G1 X144.638 Y150.692 E6.40433
G1 X144.547 Y149.495 E6.46503
G1 X144.547 Y124.011 E7.75329
G1 X149.464 Y124.011 E8.00186
G1 X149.987 Y123.789 F9600.000
G1 X150.298 Y124.770
G1 F1800.000
G1 X150.298 Y120.216 E8.23204
G1 X177.538 Y120.216 E9.60907
G1 X177.538 Y149.466 E11.08769
G1 X177.451 Y150.608 E11.14559
G1 X177.285 Y151.731 E11.20299
G1 X177.128 Y152.487 E11.24200
G1 X176.824 Y153.601 E11.30039
G1 X176.445 Y154.685 E11.35844
G1 X175.989 Y155.739 E11.41648
G1 X175.459 Y156.758 E11.47453
G1 X174.858 Y157.736 E11.53258
G1 X174.189 Y158.670 E11.59063
G1 X173.455 Y159.553 E11.64869
G1 X172.660 Y160.382 E11.70676
G1 X171.819 Y161.144 E11.76416
G1 X171.217 Y161.628 E11.80317
G1 X170.275 Y162.295 E11.86155
G1 X169.293 Y162.891 E11.91960
G1 X168.271 Y163.416 E11.97766
G1 X167.215 Y163.866 E12.03572
G1 X166.141 Y164.236 E12.09313
G1 X165.398 Y164.444 E12.13213
G1 X164.269 Y164.689 E12.19052
G1 X163.132 Y164.851 E12.24857
G1 X161.987 Y164.932 E12.30664
G1 X160.858 Y164.932 E12.36372
G1 X159.712 Y164.851 E12.42178
G1 X158.575 Y164.689 E12.47984
G1 X157.452 Y164.446 E12.53789
G1 X156.344 Y164.122 E12.59628
G1 X155.618 Y163.862 E12.63528
G1 X154.573 Y163.416 E12.69268
G1 X153.551 Y162.891 E12.75075
G1 X152.569 Y162.295 E12.80881
G1 X151.627 Y161.627 E12.86721
G1 X151.035 Y161.153 E12.90556
G1 X150.461 Y160.646 E12.94427
G1 X149.912 Y160.112 E12.98298
G1 X149.388 Y159.553 E13.02168
G1 X148.892 Y158.970 E13.06039
G1 X148.424 Y158.364 E13.09910
G1 X147.986 Y157.736 E13.13781
G1 X147.577 Y157.089 E13.17652
G1 X147.200 Y156.422 E13.21522
G1 X146.855 Y155.739 E13.25393
G1 X146.543 Y155.040 E13.29261
G1 X146.264 Y154.327 E13.33133
G1 X146.019 Y153.601 E13.37003
G1 X145.812 Y152.872 E13.40837
G1 X145.558 Y151.724 E13.46779
G1 X145.393 Y150.608 E13.52484
G1 X145.306 Y149.466 E13.58273
G1 X145.306 Y124.770 E14.83117
G1 X150.223 Y124.770 E15.07974
G1 E14.42974 F2400.00000
G92 E0
G1 X156.209 Y128.317 F9600.000
G1 E0.65000 F2400.00000
G1 F1800.000
G1 X156.749 Y127.554 E0.69724
G1 X157.363 Y126.850 E0.74448
G1 X158.046 Y126.212 E0.79171
G1 X158.785 Y125.652 E0.83861
G1 X159.558 Y125.180 E0.88439
G1 X160.372 Y124.788 E0.93004
G1 X161.238 Y124.472 E0.97664
G1 X162.118 Y124.249 E1.02251
G1 X163.015 Y124.114 E1.06839
G1 X163.907 Y124.069 E1.11355
G1 X164.825 Y124.114 E1.15999
G1 X165.731 Y124.250 E1.20630
G1 X166.608 Y124.473 E1.25204
G1 X167.457 Y124.781 E1.29769
G1 X168.283 Y125.178 E1.34405
G1 X169.054 Y125.649 E1.38972
G1 X169.795 Y126.210 E1.43667
G1 X170.263 Y126.632 E1.46853
G1 X170.898 Y127.311 E1.51557
G1 X171.463 Y128.056 E1.56279
G1 X171.949 Y128.853 E1.61002
G1 X172.351 Y129.697 E1.65724
G1 X172.664 Y130.577 E1.70447
G1 X172.886 Y131.483 E1.75164
G1 X173.013 Y132.405 E1.79868
G1 X173.046 Y133.048 E1.83122
G1 X173.015 Y133.964 E1.87756
G1 X172.889 Y134.890 E1.92477
G1 X172.668 Y135.797 E1.97199
G1 X172.358 Y136.674 E2.01903
G1 X172.091 Y137.261 E2.05158
G1 X171.635 Y138.072 E2.09862
G1 X171.096 Y138.834 E2.14584
G1 X170.482 Y139.538 E2.19306
G1 X169.800 Y140.175 E2.24023
G1 X169.055 Y140.739 E2.28747
G1 X168.256 Y141.225 E2.33471
G1 X167.428 Y141.619 E2.38111
G1 X166.825 Y141.846 E2.41363
G1 X165.929 Y142.097 E2.46070
G1 X165.008 Y142.255 E2.50795
G1 X164.075 Y142.319 E2.55519
G1 X163.141 Y142.287 E2.60244
G1 X162.216 Y142.159 E2.64968
G1 X161.308 Y141.937 E2.69691
G1 X160.443 Y141.630 E2.74331
G1 X159.857 Y141.364 E2.77584
G1 X159.045 Y140.908 E2.82291
G1 X158.282 Y140.368 E2.87015
G1 X157.578 Y139.754 E2.91740
G1 X156.940 Y139.071 E2.96464
G1 X156.376 Y138.326 E3.01188
G1 X155.891 Y137.527 E3.05912
G1 X155.496 Y136.699 E3.10551
G1 X155.270 Y136.096 E3.13805
G1 X155.019 Y135.199 E3.18512
G1 X154.861 Y134.278 E3.23236
G1 X154.798 Y133.346 E3.27959
G1 X154.830 Y132.412 E3.32683
G1 X154.958 Y131.486 E3.37407
G1 X155.179 Y130.579 E3.42130
G1 X155.486 Y129.714 E3.46767
G1 X155.753 Y129.128 E3.50022
G1 X156.173 Y128.382 E3.54349
G1 X155.979 Y127.873 F9600.000
G1 X155.548 Y127.945
G1 F1800.000
G1 X156.151 Y127.084 E3.59663
G1 X156.817 Y126.321 E3.64780
G1 X157.557 Y125.631 E3.69896
G1 X158.357 Y125.024 E3.74974
G1 X159.195 Y124.512 E3.79936
G1 X160.077 Y124.088 E3.84883
G1 X161.015 Y123.746 E3.89928
G1 X161.967 Y123.504 E3.94897
G1 X162.940 Y123.358 E3.99867
G1 X163.907 Y123.309 E4.04762
G1 X164.900 Y123.358 E4.09790
G1 X165.881 Y123.505 E4.14806
G1 X166.831 Y123.747 E4.19762
G1 X167.751 Y124.081 E4.24708
G1 X168.646 Y124.511 E4.29727
G1 X169.482 Y125.021 E4.34679
G1 X170.279 Y125.625 E4.39731
G1 X170.795 Y126.090 E4.43244
G1 X171.479 Y126.822 E4.48308
G1 X172.091 Y127.628 E4.53424
G1 X172.617 Y128.492 E4.58539
G1 X173.053 Y129.406 E4.63655
G1 X173.392 Y130.359 E4.68771
G1 X173.632 Y131.341 E4.73881
G1 X173.769 Y132.334 E4.78947
G1 X173.806 Y133.042 E4.82530
G1 X173.772 Y134.029 E4.87523
G1 X173.635 Y135.031 E4.92636
G1 X173.397 Y136.014 E4.97750
G1 X173.062 Y136.958 E5.02816
G1 X172.769 Y137.604 E5.06402
G1 X172.277 Y138.478 E5.11468
G1 X171.693 Y139.304 E5.16583
G1 X171.028 Y140.066 E5.21697
G1 X170.289 Y140.756 E5.26808
G1 X169.482 Y141.368 E5.31925
G1 X168.618 Y141.893 E5.37041
G1 X167.725 Y142.318 E5.42040
G1 X167.062 Y142.567 E5.45621
G1 X166.096 Y142.838 E5.50690
G1 X165.098 Y143.010 E5.55808
G1 X164.088 Y143.078 E5.60926
G1 X163.076 Y143.044 E5.66044
G1 X162.073 Y142.905 E5.71161
G1 X161.090 Y142.665 E5.76277
G1 X160.159 Y142.335 E5.81275
G1 X159.513 Y142.042 E5.84857
G1 X158.639 Y141.550 E5.89927
G1 X157.812 Y140.966 E5.95044
G1 X157.050 Y140.300 E6.00162
G1 X156.359 Y139.560 E6.05280
G1 X155.748 Y138.753 E6.10397
G1 X155.222 Y137.888 E6.15513
G1 X154.797 Y136.995 E6.20511
G1 X154.548 Y136.332 E6.24093
G1 X154.278 Y135.366 E6.29163
G1 X154.107 Y134.369 E6.34280
G1 X154.038 Y133.359 E6.39397
G1 X154.073 Y132.347 E6.44514
G1 X154.211 Y131.344 E6.49631
G1 X154.451 Y130.361 E6.54747
G1 X154.782 Y129.430 E6.59742
G1 X155.075 Y128.785 E6.63326
G1 X155.511 Y128.010 E6.67819
G1 E6.02819 F2400.00000
G92 E0
G1 X158.773 Y148.466 F9600.000
G1 E0.65000 F2400.00000
G1 F1800.000
G1 X159.256 Y148.487 E0.67441
G1 X159.605 Y148.575 E0.69261
G1 X160.051 Y148.793 E0.71770
G1 X160.329 Y149.009 E0.73549
G1 X160.567 Y149.268 E0.75328
G1 X160.821 Y149.695 E0.77838
G1 X160.935 Y150.027 E0.79616
G1 X160.992 Y150.366 E0.81349
G1 X160.992 Y150.709 E0.83083
G1 X160.935 Y151.047 E0.84817
G1 X160.821 Y151.380 E0.86595
G1 X160.567 Y151.806 E0.89104
G1 X160.323 Y152.071 E0.90928
G1 X159.911 Y152.365 E0.93483
G1 X159.441 Y152.549 E0.96036
G1 X159.094 Y152.607 E0.97815
G1 X158.742 Y152.607 E0.99594
G1 X158.256 Y152.505 E1.02103
G1 X157.933 Y152.363 E1.03887
G1 X157.628 Y152.162 E1.05732
G1 X157.288 Y151.820 E1.08173
G1 X157.091 Y151.518 E1.09993
G1 X156.910 Y151.056 E1.12502
G1 X156.851 Y150.700 E1.14325
G1 X156.872 Y150.204 E1.16834
G1 X156.960 Y149.854 E1.18657
G1 X157.178 Y149.408 E1.21167
G1 X157.400 Y149.124 E1.22990
G1 X157.778 Y148.803 E1.25499
G1 X158.088 Y148.635 E1.27278
G1 X158.413 Y148.524 E1.29018
G1 X158.699 Y148.478 E1.30483
G1 X158.993 Y148.036 F9600.000
G1 X158.729 Y147.704
G1 F1800.000
G1 X159.367 Y147.732 E1.33709
G1 X159.867 Y147.859 E1.36319
G1 X160.455 Y148.146 E1.39624
G1 X160.844 Y148.449 E1.42119
G1 X161.178 Y148.812 E1.44613
G1 X161.513 Y149.374 E1.47919
G1 X161.673 Y149.841 E1.50413
G1 X161.750 Y150.303 E1.52782
G1 X161.750 Y150.772 E1.55151
G1 X161.673 Y151.234 E1.57520
G1 X161.513 Y151.700 E1.60014
G1 X161.178 Y152.262 E1.63320
G1 X160.828 Y152.643 E1.65938
G1 X160.275 Y153.038 E1.69369
G1 X159.643 Y153.284 E1.72798
G1 X159.157 Y153.366 E1.75293
G1 X158.663 Y153.366 E1.77788
G1 X158.023 Y153.231 E1.81092
G1 X157.569 Y153.032 E1.83602
G1 X157.145 Y152.752 E1.86168
G1 X156.695 Y152.299 E1.89395
G1 X156.413 Y151.867 E1.92005
G1 X156.175 Y151.258 E1.95309
G1 X156.090 Y150.747 E1.97928
G1 X156.117 Y150.094 E2.01233
G1 X156.244 Y149.592 E2.03852
G1 X156.531 Y149.004 E2.07157
G1 X156.849 Y148.596 E2.09776
G1 X157.348 Y148.173 E2.13080
G1 X157.782 Y147.938 E2.15576
G1 X158.229 Y147.785 E2.17962
G1 X158.655 Y147.716 E2.20147
G1 E1.55147 F2400.00000
G92 E0
G1 X159.771 Y142.200 F9600.000
G1 E0.65000 F2400.00000
G1 F1800.000
G1 X174.753 Y157.182 E1.73702
G1 X175.163 Y156.504 E1.77771
G1 X161.918 Y143.258 E2.73876
G1 X163.044 Y143.422 E2.79714
G1 X163.175 Y143.427 E2.80390
G1 X175.536 Y155.787 E3.70072
G1 X175.878 Y155.040 E3.74288
G1 X164.283 Y143.445 E4.58412
G1 X165.143 Y143.387 E4.62834
G1 X165.289 Y143.362 E4.63591
G1 X176.190 Y154.263 E5.42688
G1 X176.471 Y153.455 E5.47078
G1 X166.215 Y143.199 E6.21493
G1 X167.065 Y142.960 E6.26026
G1 X176.704 Y152.599 E6.95959
G1 X176.903 Y151.708 E7.00639
G1 X167.865 Y142.671 E7.66211
G1 X168.604 Y142.320 E7.70405
G1 X177.045 Y150.762 E8.31653
G1 X177.135 Y149.763 E8.36799
G1 X169.297 Y141.924 E8.93670
G1 X169.696 Y141.682 E8.96067
G1 X169.950 Y141.489 E8.97705
G1 X177.159 Y148.697 E9.50005
G1 X177.159 Y147.608 E9.55593
G1 X170.567 Y141.016 E10.03422
G1 X171.130 Y140.490 E10.07376
G1 X177.159 Y146.519 E10.51119
G1 X177.159 Y145.430 E10.56706
G1 X171.654 Y139.926 E10.96644
G1 X171.992 Y139.539 E10.99278
G1 X172.143 Y139.325 E11.00620
G1 X177.159 Y144.341 E11.37013
G1 X177.159 Y143.252 E11.42601
G1 X172.594 Y138.687 E11.75722
G1 X172.987 Y137.991 E11.79824
G1 X177.159 Y142.163 E12.10096
